!!!!SEGMENT: pl-wnifc--13846--056_anonim--piesni-polskie-i-ruskie-ludu-galicyjskiego-56-treset-my-sia-wolosia.krn
!!!kernsource:
!!!cenid: 18xx:3278
!!!COM: Anonim
!!!COM-rismID: pe30004985
!!!CDT:
!!!CNT:
!!!GTL: Pieśni polskie i ruskie ludu galicyjskiego
!!!OTL: 56. Treset my sia wołosia
!!!OMV: 056
!!!PDT: 1833
!!!AGN:
!!!SMS-siglum: PL-Wnifc
!!!SMS-shelfmark: 13846
!!!SMS-shelfwork: 001-056 G
!!!SMS-variant:
!!!SMS-altvar:
!!!NIFC-rismSourceID: 1001036701
!!!NIFC-rismChildID: 1001037063
!!!NIFC-islandoraID: nifc:210326
!!!URL-pdf-islandora: https://repozytorium.nifc.pl/islandora/object/nifc%3A210326/datastream/PDF/view
!!!URL-scan:
!!!IIIF:
!!!ONB-nifc:
!!!OMD:
!!!AIN: 1 piano 1 vox
!!!key: d
**kern	**kern	**kern	**text
*part2	*part2	*part1	*part1
*staff3	*staff2	*staff1	*staff1
*I"Fortepian	*I"Fortepian	*I"Głos	*
*Ipiano	*Ipiano	*Ivox	*
*ICklav	*ICklav	*ICvox	*
*IGacmp	*IGacmp	*IGsolo	*
*clefF4	*clefG2	*clefG2	*
*k[b-]	*k[b-]	*k[b-]	*
*d:	*d:	*d:	*
*M2/4	*M2/4	*M2/4	*
=1	=1	=1	=1
*^	*	*	*
8C#X\L	4A/	8a|>\L 8ee\	8ee\	Tre-
8AA\	.	(16a\L 16ee\	(16ee\LL	-set
.	.	16a\JJ) 16gg\	16gg\JJ)	.
8D\	4A/	8a\L 8ff\	8ff\	my
8AA\J	.	8a\J 8ff\	8ff\	sia
=2	=2	=2	=2	=2
8C#X\L	4A/	8a\L 8ee\	8ee\	wo-
8AA\	.	(16a\L 16ee\	(16ee\LL	-ło-
.	.	16a\JJ) 16gg\	16gg\JJ)	.
8D\	4A/	4a\ 4ff\	4ff\	-sia,
8AA\J	.	.	.	.
=3	=3	=3	=3	=3
8C#X\L	4A/	8a|>\L 8ee\	8ee\	lu-
8AA\	.	(16a\L 16ee\	(16ee\LL	-byt
.	.	16a\JJ) 16gg\	16gg\JJ)	.
8D\	4A/	8a\L 8ff\	8ff\	me-
8AA\J	.	8a\J 8ff\	8ff\	-ne
!!LO:PB:g=original
=4	=4	=4	=4	=4
8AA\L 8G\	8A/L	8a\L 8ee\	8ee\	Ha-
8AA\J 8G\	8A/J	(16a\L 16ee\	(16ee\LL	-nu-
.	.	16a/JJ) 16cc#X/	16cc#X\JJ)	.
4D\ 4F\	4A/	4a\ 4dd\	4dd\	-sia
*v	*v	*	*	*
=5||	=5||	=5||	=5||
8D\L 8F\	8a\L 8aa\	8a/	tre-
8A\	8a\ 8aa\	8a/	-set
8D\ 8F\	8dd\ 8ddd\	8dd\	my
8A\J	8dd\J 8ddd\	8dd\	sia
=6	=6	=6	=6
8AA/L 8E/ 8G/	8cc#X\L 8ccc#X\	8cc#X\	czu-
8A\	8cc#\J 8ccc#\	8cc#\	-pry-
8D\ 8F\	4dd\^< 4ddd\	4dd\	-na,
8A\J	.	.	.
!!LO:LB:g=original
=7	=7	=7	=7
*^	*	*	*
8C#X\L	4A/	8a\L 8ee\	8ee\	lu-
8AA\	.	(16a\L 16ee\	(16ee\LL	-byt
.	.	16a\JJ) 16gg\	16gg\JJ)	.
8D\	4A/	8a\L 8ff\	8ff\	me-
8AA\J	.	8a\J 8ff\	8ff\	-ne
=8	=8	=8	=8	=8
8AA\L 8G\	8A/L	(>16a\LL 16ee\	(16ee\LL	diw-
.	.	16dd\)	16dd\JJ)	.
8AA\J 8G\	8A/J	(16a/ 16cc#X/	(16cc#X\LL	-czy-
.	.	16ee\JJ)	16ee\JJ)	.
*	*	*^	*	*
4D\ 4F\	4A/	4a\	4dd/	4dd\	-na.
*v	*v	*	*	*	*
*	*v	*v	*	*
!!LO:LB:g=original
==	==	==	==
*-	*-	*-	*-
!!!system-decoration: s1,{(s2,s3)}
!!!RDF**kern: < = below
!!!RDF**kern: > = above
!!!ENC: Marta Chmielewska
!!!END: 2021-11-10
!!!YEC: Copyright 2022 Narodowy Instytut Fryderyka Chopina (https://polishscores.org)
!!!YEM: License CC-BY-4.0 (https://creativecommons.org/licenses/by/4.0)
